;FLAVOR:Marlin
;TIME:3257
;Filament used: 2.15581m
;Layer height: 0.2
;MINX:51.555
;MINY:60.194
;MINZ:0.2
;MAXX:110.842
;MAXY:93.296
;MAXZ:10
;Generated with Cura_SteamEngine main
M140 S50
M105
M190 S50
M104 S220
M105
M109 S220
M82 ;absolute extrusion mode
M201 X500.00 Y500.00 Z100.00 E5000.00 ;Setup machine max acceleration
M203 X500.00 Y500.00 Z10.00 E50.00 ;Setup machine max feedrate
M204 P500.00 R1000.00 T500.00 ;Setup Print/Retract/Travel acceleration
M205 X8.00 Y8.00 Z0.40 E5.00 ;Setup Jerk
M220 S100 ;Reset Feedrate
M221 S100 ;Reset Flowrate

G28 ;Home

G92 E0 ;Reset Extruder
G1 Z2.0 F3000 ;Move Z Axis up
G1 X10.1 Y20 Z0.28 F5000.0 ;Move to start position
G1 X10.1 Y100.0 Z0.28 F1500.0 E8 ;Draw the first line
G1 X10.4 Y100.0 Z0.28 F5000.0 ;Move to side a little
G1 X10.4 Y20 Z0.28 F1500.0 E15 ;Draw the second line
G92 E0 ;Reset Extruder
G1 Z2.0 F3000 ;Move Z Axis up

G92 E0
G92 E0
G1 F2700 E-5
;LAYER_COUNT:50
;LAYER:0
M107
G0 F6000 X53.772 Y61.854 Z0.2
G0 X51.555 Y67.427
;TYPE:SKIRT
G1 F2700 E0
G1 F1200 X51.569 Y66.645 E0.02601
G1 X51.642 Y65.778 E0.05495
G1 X51.692 Y65.491 E0.06464
G1 X51.813 Y65.01 E0.08114
G1 X51.907 Y64.676 E0.09268
G1 X52.015 Y64.382 E0.1031
G1 X52.345 Y63.664 E0.12938
G1 X52.505 Y63.379 E0.14025
G1 X52.828 Y62.903 E0.15938
G1 X53.001 Y62.664 E0.16919
G1 X53.186 Y62.444 E0.17876
G1 X53.555 Y62.065 E0.19635
G1 X53.772 Y61.854 E0.20642
G1 X53.993 Y61.668 E0.21602
G1 X54.453 Y61.336 E0.23489
G1 X54.702 Y61.167 E0.2449
G1 X54.949 Y61.024 E0.25439
G1 X55.427 Y60.792 E0.27207
G1 X55.695 Y60.671 E0.28185
G1 X55.968 Y60.571 E0.29152
G1 X56.745 Y60.35 E0.31838
G1 X57.095 Y60.289 E0.3302
G1 X57.619 Y60.235 E0.34772
G1 X58.023 Y60.209 E0.36119
G1 X58.9 Y60.195 E0.39036
G1 X77.425 Y60.194 E1.0065
G1 X78.196 Y60.208 E1.03215
G1 X78.731 Y60.247 E1.04999
G1 X79.1 Y60.285 E1.06233
G1 X79.401 Y60.34 E1.07251
G1 X80.126 Y60.531 E1.09744
G1 X80.431 Y60.639 E1.1082
G1 X81.697 Y61.204 E1.15431
G1 X84.265 Y62.304 E1.24723
G1 X86.866 Y63.332 E1.34025
G1 X89.478 Y64.281 E1.43269
G1 X92.058 Y65.136 E1.52309
G1 X94.752 Y65.945 E1.61664
G1 X97.417 Y66.664 E1.70845
G1 X100.138 Y67.316 E1.80151
G1 X101.874 Y67.706 E1.86069
G1 X102.707 Y67.936 E1.88943
G1 X103.083 Y68.065 E1.90265
G1 X103.779 Y68.337 E1.92751
G1 X104.181 Y68.521 E1.94221
G1 X104.761 Y68.816 E1.96386
G1 X105.202 Y69.072 E1.98082
G1 X105.795 Y69.453 E2.00426
G1 X106.106 Y69.676 E2.01699
G1 X106.818 Y70.245 E2.0473
G1 X107.053 Y70.458 E2.05785
G1 X107.652 Y71.047 E2.08579
G1 X107.914 Y71.334 E2.09872
G1 X108.367 Y71.878 E2.12226
G1 X108.658 Y72.269 E2.13847
G1 X109.102 Y72.931 E2.16499
G1 X109.292 Y73.254 E2.17745
G1 X109.614 Y73.853 E2.20007
G1 X109.841 Y74.34 E2.21794
G1 X110.094 Y74.951 E2.23993
G1 X110.261 Y75.428 E2.25674
G1 X110.49 Y76.212 E2.28391
G1 X110.574 Y76.574 E2.29627
G1 X110.699 Y77.23 E2.31848
G1 X110.76 Y77.672 E2.33332
G1 X110.832 Y78.523 E2.36173
G1 X110.842 Y78.946 E2.3758
G1 X110.828 Y79.696 E2.40075
G1 X110.796 Y80.12 E2.41489
G1 X110.721 Y80.77 E2.43665
G1 X110.63 Y81.296 E2.45441
G1 X110.486 Y81.946 E2.47655
G1 X110.374 Y82.354 E2.49062
G1 X110.143 Y83.061 E2.51536
G1 X109.948 Y83.56 E2.53318
G1 X109.632 Y84.259 E2.5587
G1 X109.489 Y84.537 E2.56909
G1 X109.119 Y85.184 E2.59388
G1 X108.822 Y85.643 E2.61207
G1 X108.437 Y86.177 E2.63396
G1 X108.157 Y86.527 E2.64887
G1 X107.614 Y87.141 E2.67613
G1 X107.325 Y87.431 E2.68975
G1 X106.831 Y87.889 E2.71215
G1 X106.436 Y88.215 E2.72919
G1 X105.798 Y88.69 E2.75564
G1 X105.458 Y88.915 E2.7692
G1 X104.789 Y89.315 E2.79513
G1 X104.503 Y89.466 E2.80589
G1 X103.728 Y89.83 E2.83436
G1 X103.347 Y89.983 E2.84802
G1 X102.726 Y90.204 E2.86994
G1 X102.194 Y90.358 E2.88836
G1 X101.575 Y90.508 E2.90955
G1 X101.147 Y90.59 E2.92404
G1 X100.305 Y90.705 E2.95231
G1 X99.9 Y90.737 E2.96582
G1 X98.189 Y90.798 E3.02276
G1 X97.329 Y90.818 E3.05138
G1 X94.582 Y90.959 E3.14286
G1 X91.767 Y91.184 E3.23679
G1 X89.033 Y91.479 E3.32825
G1 X86.313 Y91.852 E3.41956
G1 X83.561 Y92.309 E3.51235
G1 X79.785 Y93.066 E3.64044
G1 X79.226 Y93.19 E3.65948
G1 X78.606 Y93.253 E3.68021
G1 X78.181 Y93.282 E3.69438
G1 X77.32 Y93.295 E3.72302
G1 X58.787 Y93.296 E4.33943
G1 X58.027 Y93.282 E4.36471
G1 X57.464 Y93.241 E4.38348
G1 X57.114 Y93.205 E4.39519
G1 X56.81 Y93.149 E4.40547
G1 X56.077 Y92.955 E4.43069
G1 X55.773 Y92.848 E4.44141
G1 X55.207 Y92.594 E4.46204
G1 X54.982 Y92.485 E4.47036
G1 X54.733 Y92.341 E4.47992
G1 X54.282 Y92.035 E4.49805
G1 X54.038 Y91.859 E4.50806
G1 X53.817 Y91.674 E4.51764
G1 X53.395 Y91.264 E4.53721
G1 X53.209 Y91.073 E4.54608
G1 X53.023 Y90.853 E4.55566
G1 X52.748 Y90.474 E4.57124
G1 X52.537 Y90.164 E4.58371
G1 X52.395 Y89.919 E4.59313
G1 X52.135 Y89.385 E4.61288
G1 X52.025 Y89.14 E4.62181
G1 X51.921 Y88.849 E4.63209
G1 X51.711 Y88.081 E4.65857
G1 X51.649 Y87.739 E4.67013
G1 X51.568 Y86.814 E4.70102
G1 X51.556 Y85.985 E4.72859
G1 X51.555 Y67.427 E5.34583
G0 F6000 X51.955 Y67.432
G1 F1200 X51.968 Y66.674 E5.37105
G1 X52.01 Y66.115 E5.38969
G1 X52.052 Y65.701 E5.40353
G1 X52.201 Y65.108 E5.42387
G1 X52.292 Y64.784 E5.43506
G1 X52.378 Y64.549 E5.44339
G1 X52.708 Y63.831 E5.46967
G1 X52.837 Y63.603 E5.47838
G1 X53.152 Y63.138 E5.49706
G1 X53.393 Y62.806 E5.51071
G1 X53.834 Y62.352 E5.53176
G1 X54.139 Y62.056 E5.54589
G1 X54.677 Y61.667 E5.56798
G1 X55.019 Y61.435 E5.58172
G1 X55.592 Y61.157 E5.6029
G1 X55.967 Y60.988 E5.61658
G1 X56.84 Y60.738 E5.64679
G1 X57.137 Y60.687 E5.65681
G1 X57.647 Y60.634 E5.67386
G1 X58.029 Y60.609 E5.6866
G1 X58.9 Y60.595 E5.71557
G1 X77.419 Y60.594 E6.33151
G1 X78.167 Y60.607 E6.3564
G1 X78.702 Y60.646 E6.37424
G1 X79.18 Y60.696 E6.39022
G1 X80.024 Y60.918 E6.41925
G1 X80.268 Y61.004 E6.42785
G1 X81.539 Y61.571 E6.47414
G1 X84.127 Y62.68 E6.56779
G1 X86.731 Y63.709 E6.66092
G1 X89.32 Y64.649 E6.75253
G1 X91.983 Y65.532 E6.84584
G1 X94.608 Y66.32 E6.937
G1 X97.321 Y67.052 E7.03046
G1 X100.045 Y67.705 E7.12363
G1 X101.86 Y68.114 E7.18551
G1 X102.489 Y68.287 E7.20721
G1 X102.939 Y68.438 E7.22299
G1 X103.53 Y68.666 E7.24406
G1 X103.999 Y68.878 E7.26118
G1 X104.579 Y69.173 E7.28282
G1 X104.986 Y69.409 E7.29847
G1 X105.579 Y69.79 E7.32192
G1 X105.87 Y69.999 E7.33383
G1 X106.48 Y70.483 E7.35973
G1 X106.773 Y70.744 E7.37278
G1 X107.358 Y71.318 E7.40004
G1 X107.607 Y71.59 E7.41231
G1 X108.06 Y72.134 E7.43585
G1 X108.287 Y72.437 E7.44844
G1 X108.758 Y73.136 E7.47648
G1 X108.939 Y73.443 E7.48833
G1 X109.261 Y74.042 E7.51095
G1 X109.471 Y74.493 E7.5275
G1 X109.757 Y75.189 E7.55252
G1 X109.878 Y75.541 E7.5649
G1 X110.079 Y76.222 E7.58852
G1 X110.181 Y76.649 E7.60312
G1 X110.306 Y77.305 E7.62533
G1 X110.371 Y77.793 E7.64171
G1 X110.427 Y78.436 E7.66317
G1 X110.442 Y78.941 E7.67998
G1 X110.433 Y79.577 E7.70113
G1 X110.405 Y80.005 E7.7154
G1 X110.31 Y80.82 E7.74269
G1 X110.253 Y81.142 E7.75357
G1 X110.073 Y81.948 E7.78103
G1 X109.989 Y82.245 E7.7913
G1 X109.732 Y83.023 E7.81855
G1 X109.583 Y83.397 E7.83194
G1 X109.276 Y84.076 E7.85673
G1 X109.097 Y84.42 E7.86962
G1 X108.772 Y84.985 E7.8913
G1 X108.498 Y85.409 E7.90809
G1 X108.061 Y86.011 E7.93284
G1 X107.856 Y86.263 E7.94364
G1 X107.329 Y86.86 E7.97013
G1 X107.104 Y87.088 E7.98078
G1 X106.559 Y87.595 E8.00554
G1 X106.196 Y87.895 E8.0212
G1 X105.575 Y88.358 E8.04697
G1 X105.252 Y88.573 E8.05987
G1 X104.681 Y88.917 E8.08204
G1 X104.316 Y89.112 E8.09581
G1 X103.577 Y89.46 E8.12297
G1 X103.28 Y89.581 E8.13364
G1 X102.591 Y89.827 E8.15797
G1 X102.1 Y89.969 E8.17497
G1 X101.481 Y90.119 E8.19616
G1 X101.002 Y90.208 E8.21236
G1 X100.356 Y90.297 E8.23405
G1 X99.886 Y90.337 E8.24974
G1 X98.18 Y90.399 E8.30652
G1 X97.297 Y90.42 E8.3359
G1 X94.53 Y90.562 E8.42805
G1 X91.764 Y90.783 E8.52034
G1 X88.973 Y91.084 E8.61371
G1 X86.225 Y91.461 E8.70596
G1 X83.512 Y91.911 E8.79743
G1 X79.688 Y92.678 E8.92715
G1 X79.16 Y92.794 E8.94513
G1 X78.576 Y92.854 E8.96465
G1 X78.175 Y92.882 E8.97802
G1 X77.32 Y92.895 E9.00647
G1 X58.793 Y92.896 E9.62268
G1 X58.056 Y92.883 E9.64719
G1 X57.493 Y92.842 E9.66597
G1 X57.03 Y92.794 E9.68145
G1 X56.18 Y92.569 E9.71069
G1 X55.936 Y92.483 E9.7193
G1 X55.381 Y92.234 E9.73953
G1 X55.053 Y92.075 E9.75165
G1 X54.516 Y91.711 E9.77323
G1 X54.18 Y91.469 E9.787
G1 X53.682 Y90.985 E9.8101
G1 X53.412 Y90.708 E9.82297
G1 X53.072 Y90.239 E9.84223
G1 X52.803 Y89.843 E9.85816
G1 X52.5 Y89.221 E9.88117
G1 X52.341 Y88.866 E9.89411
G1 X52.097 Y87.975 E9.92483
G1 X52.047 Y87.702 E9.93406
G1 X51.968 Y86.808 E9.96391
G1 X51.956 Y85.985 E9.99129
G1 X51.955 Y67.432 E10.60836
G0 F6000 X52.355 Y67.438
G1 F1200 X52.367 Y66.704 E10.63278
G1 X52.408 Y66.155 E10.65109
G1 X52.448 Y65.764 E10.66416
G1 X52.698 Y64.811 E10.69693
G1 X53.114 Y63.907 E10.73003
G1 X53.476 Y63.372 E10.75152
G1 X53.7 Y63.063 E10.76421
G1 X54.112 Y62.639 E10.78387
G1 X54.393 Y62.366 E10.7969
G1 X54.902 Y61.998 E10.81779
G1 X55.221 Y61.781 E10.83063
G1 X55.756 Y61.521 E10.85041
G1 X56.103 Y61.364 E10.86308
G1 X56.737 Y61.183 E10.88501
G1 X57.095 Y61.094 E10.89728
G1 X57.676 Y61.033 E10.91671
G1 X58.036 Y61.009 E10.92871
G1 X58.9 Y60.995 E10.95745
G1 X77.414 Y60.994 E11.57323
G1 X78.138 Y61.006 E11.59731
G1 X78.673 Y61.045 E11.61515
G1 X79.109 Y61.091 E11.62973
G1 X80.019 Y61.33 E11.66103
G1 X81.382 Y61.939 E11.71068
G1 X83.971 Y63.048 E11.80436
G1 X86.584 Y64.081 E11.89781
G1 X89.196 Y65.03 E11.99024
G1 X91.858 Y65.912 E12.08351
G1 X94.504 Y66.706 E12.1754
G1 X97.233 Y67.442 E12.26941
G1 X99.935 Y68.09 E12.36183
G1 X101.699 Y68.486 E12.42196
G1 X102.383 Y68.673 E12.44554
G1 X102.795 Y68.811 E12.45999
G1 X103.386 Y69.039 E12.48106
G1 X103.818 Y69.234 E12.49683
G1 X104.398 Y69.529 E12.51847
G1 X104.77 Y69.745 E12.53278
G1 X105.363 Y70.126 E12.55622
G1 X105.634 Y70.322 E12.56734
G1 X106.231 Y70.796 E12.5927
G1 X106.494 Y71.03 E12.60441
G1 X107.022 Y71.546 E12.62896
G1 X107.299 Y71.846 E12.64254
G1 X107.752 Y72.39 E12.66609
G1 X107.995 Y72.717 E12.67964
G1 X108.414 Y73.34 E12.70461
G1 X108.587 Y73.633 E12.71593
G1 X108.941 Y74.296 E12.74092
G1 X109.102 Y74.646 E12.75374
G1 X109.355 Y75.257 E12.77573
G1 X109.494 Y75.654 E12.78972
G1 X109.695 Y76.335 E12.81334
G1 X109.788 Y76.723 E12.82661
G1 X109.913 Y77.379 E12.84882
G1 X109.967 Y77.776 E12.86215
G1 X110.033 Y78.544 E12.88778
G1 X110.042 Y78.887 E12.8992
G1 X110.03 Y79.639 E12.92421
G1 X110.001 Y80.029 E12.93722
G1 X109.916 Y80.75 E12.96136
G1 X109.849 Y81.123 E12.97397
G1 X109.705 Y81.773 E12.99611
G1 X109.604 Y82.137 E13.00868
G1 X109.36 Y82.876 E13.03456
G1 X109.218 Y83.233 E13.04734
G1 X108.948 Y83.835 E13.06928
G1 X108.777 Y84.171 E13.08182
G1 X108.393 Y84.839 E13.10745
G1 X108.208 Y85.125 E13.11878
G1 X107.749 Y85.76 E13.14484
G1 X107.555 Y85.999 E13.15508
G1 X107.044 Y86.579 E13.18079
G1 X106.781 Y86.844 E13.19321
G1 X106.287 Y87.302 E13.21561
G1 X105.956 Y87.575 E13.22988
G1 X105.352 Y88.026 E13.25495
G1 X105.045 Y88.23 E13.26721
G1 X104.474 Y88.574 E13.28938
G1 X104.081 Y88.782 E13.30417
G1 X103.426 Y89.089 E13.32823
G1 X103.078 Y89.23 E13.34072
G1 X102.457 Y89.451 E13.36265
G1 X102.05 Y89.569 E13.37674
G1 X101.322 Y89.744 E13.40164
G1 X100.948 Y89.812 E13.41429
G1 X100.302 Y89.901 E13.43598
G1 X99.928 Y89.934 E13.44846
G1 X98.17 Y89.999 E13.50697
G1 X97.278 Y90.02 E13.53665
G1 X94.511 Y90.162 E13.6288
G1 X91.725 Y90.384 E13.72176
G1 X88.947 Y90.685 E13.8147
G1 X86.177 Y91.064 E13.90769
G1 X83.424 Y91.521 E14.0005
G1 X79.609 Y92.286 E14.12992
G1 X79.093 Y92.4 E14.14749
G1 X78.546 Y92.456 E14.16578
G1 X78.169 Y92.482 E14.17835
G1 X77.32 Y92.495 E14.20659
G1 X58.798 Y92.496 E14.82264
G1 X58.085 Y92.484 E14.84635
G1 X57.522 Y92.443 E14.86513
G1 X57.102 Y92.399 E14.87917
G1 X56.184 Y92.156 E14.91076
G1 X55.589 Y91.89 E14.93244
G1 X55.253 Y91.727 E14.94486
G1 X54.75 Y91.386 E14.96507
G1 X54.433 Y91.158 E14.97806
G1 X53.968 Y90.706 E14.99962
G1 X53.722 Y90.453 E15.01136
G1 X53.374 Y89.973 E15.03108
G1 X53.152 Y89.645 E15.04425
G1 X52.865 Y89.058 E15.06599
G1 X52.716 Y88.727 E15.07806
G1 X52.455 Y87.771 E15.11102
G1 X52.373 Y86.896 E15.14025
G1 X52.356 Y85.985 E15.17056
G1 X52.355 Y67.438 E15.78743
G1 F2700 E10.78743
;MESH:Pneumatic Fitting Strain Relief.STL
G0 F6000 X55.517 Y67.754
G0 X57.648 Y69.307
;TYPE:WALL-INNER
G1 F2700 E15.78743
G1 F1200 X57.221 Y69.191 E15.80215
G1 X56.808 Y69.003 E15.81724
G1 X56.434 Y68.738 E15.83249
G1 X56.116 Y68.42 E15.84744
G1 X55.85 Y68.045 E15.86274
G1 X55.661 Y67.634 E15.87778
G1 X55.544 Y67.198 E15.8928
G1 X55.507 Y66.773 E15.90698
G1 X55.541 Y66.292 E15.92302
G1 X55.662 Y65.857 E15.93804
G1 X55.851 Y65.442 E15.95321
G1 X56.113 Y65.076 E15.96818
G1 X56.436 Y64.753 E15.98337
G1 X56.806 Y64.488 E15.99851
G1 X57.22 Y64.299 E16.01364
G1 X57.654 Y64.184 E16.02858
G1 X58.098 Y64.143 E16.04341
G1 X58.558 Y64.181 E16.05876
G1 X58.99 Y64.299 E16.07365
G1 X59.403 Y64.487 E16.08875
G1 X59.774 Y64.749 E16.10385
G1 X60.095 Y65.07 E16.11895
G1 X60.363 Y65.448 E16.13436
G1 X60.548 Y65.851 E16.14911
G1 X60.668 Y66.289 E16.16422
G1 X60.708 Y66.745 E16.17944
G1 X60.668 Y67.207 E16.19487
G1 X60.549 Y67.636 E16.20967
G1 X60.363 Y68.042 E16.22453
G1 X60.095 Y68.42 E16.23994
G1 X59.778 Y68.737 E16.25485
G1 X59.406 Y69 E16.27
G1 X59.343 Y69.03 E16.27232
G1 X58.992 Y69.188 E16.28512
G1 X58.557 Y69.306 E16.30012
G1 X58.102 Y69.345 E16.3153
G1 X57.648 Y69.307 E16.33046
G0 F6000 X58.934 Y69.101
G0 X58.857 Y68.812
;TYPE:WALL-OUTER
G1 F1200 X58.489 Y68.912 E16.34314
G1 X58.104 Y68.945 E16.35599
G1 X57.704 Y68.908 E16.36935
G1 X57.369 Y68.817 E16.3809
G1 X57.023 Y68.661 E16.39352
G1 X56.707 Y68.441 E16.40633
G1 X56.41 Y68.144 E16.4203
G1 X56.208 Y67.859 E16.43192
G1 X56.045 Y67.511 E16.4447
G1 X55.938 Y67.129 E16.45789
G1 X55.907 Y66.73 E16.47121
G1 X55.938 Y66.361 E16.48352
G1 X56.038 Y65.994 E16.49617
G1 X56.208 Y65.631 E16.5095
G1 X56.42 Y65.333 E16.52167
G1 X56.694 Y65.059 E16.53456
G1 X57.007 Y64.838 E16.5473
G1 X57.369 Y64.673 E16.56053
G1 X57.722 Y64.578 E16.57269
G1 X58.088 Y64.546 E16.58491
G1 X58.507 Y64.582 E16.5989
G1 X58.842 Y64.673 E16.61044
G1 X59.188 Y64.829 E16.62307
G1 X59.505 Y65.049 E16.6359
G1 X59.801 Y65.346 E16.64985
G1 X60.003 Y65.631 E16.66147
G1 X60.165 Y65.976 E16.67414
G1 X60.275 Y66.378 E16.68801
G1 X60.305 Y66.761 E16.70078
G1 X60.269 Y67.147 E16.71368
G1 X60.166 Y67.511 E16.72626
G1 X60.003 Y67.859 E16.73904
G1 X59.801 Y68.144 E16.75066
G1 X59.53 Y68.419 E16.7635
G1 X59.206 Y68.653 E16.77679
G1 X59.177 Y68.666 E16.77785
G1 X58.857 Y68.812 E16.78955
G1 F2700 E11.78955
G0 F6000 X58.934 Y69.101
G0 X59.496 Y69.156
G0 X61.32 Y72.314
G0 X68.21 Y84.785
;TYPE:WALL-INNER
G1 F2700 E16.78955
G1 F1200 X68.002 Y84.785 E16.79647
G1 X67.805 Y84.713 E16.80344
G1 X61.278 Y80.941 E17.05418
G1 X61.147 Y80.786 E17.06093
G1 X61.059 Y80.528 E17.06999
G1 X61.059 Y72.962 E17.32164
G1 X61.147 Y72.704 E17.33071
G1 X61.278 Y72.549 E17.33746
G1 X64.092 Y70.922 E17.44557
G1 X67.805 Y68.777 E17.58819
G1 X68.002 Y68.705 E17.59517
G1 X68.21 Y68.705 E17.60208
G1 X68.407 Y68.777 E17.60906
G1 X74.896 Y72.527 E17.85833
G1 X75.065 Y72.704 E17.86647
G1 X75.153 Y72.962 E17.87554
G1 X75.153 Y80.528 E18.12718
G1 X75.065 Y80.786 E18.13625
G1 X74.933 Y80.942 E18.14305
G1 X68.407 Y84.713 E18.39374
G1 X68.21 Y84.785 E18.40071
G0 F6000 X68.165 Y84.391
;TYPE:WALL-OUTER
G1 F1200 X68.047 Y84.391 E18.40464
G1 X61.509 Y80.614 E18.65577
G1 X61.457 Y80.488 E18.6603
G1 X61.457 Y73.002 E18.90929
G1 X61.523 Y72.872 E18.91414
G1 X64.292 Y71.268 E19.02057
G1 X68.047 Y69.099 E19.1648
G1 X68.165 Y69.099 E19.16873
G1 X74.669 Y72.857 E19.41856
G1 X74.755 Y73.002 E19.42417
G1 X74.755 Y80.488 E19.67316
G1 X74.691 Y80.62 E19.67804
G1 X68.165 Y84.391 E19.92872
G1 F2700 E14.92872
G0 F6000 X68.533 Y84.756
G0 X73.44 Y81.575
G0 X76.022 Y84.909
G0 X78.108 Y89.348
;TYPE:WALL-INNER
G1 F2700 E19.92872
G1 F1200 X77.652 Y89.308 E19.94395
G1 X77.221 Y89.191 E19.9588
G1 X76.808 Y89.003 E19.97389
G1 X76.437 Y88.741 E19.989
G1 X76.116 Y88.42 E20.0041
G1 X75.848 Y88.042 E20.01951
G1 X75.662 Y87.636 E20.03436
G1 X75.543 Y87.202 E20.04933
G1 X75.507 Y86.783 E20.06332
G1 X75.54 Y86.298 E20.07949
G1 X75.662 Y85.854 E20.0948
G1 X75.849 Y85.445 E20.10976
G1 X76.113 Y85.073 E20.12493
G1 X76.436 Y84.75 E20.14013
G1 X76.82 Y84.484 E20.15566
G1 X77.218 Y84.299 E20.17026
